polaris-icons/icons/new-icons/HashtagMajor.svg

<svg width="20" height="20" viewBox="0 0 20 20" fill="none" xmlns="http://www.w3.org/2000/svg">
<path fill-rule="evenodd" clip-rule="evenodd" d="M14.2389 4.37863C14.3099 3.97054 14.0366 3.58219 13.6285 3.51121C13.2204 3.44024 12.8321 3.71353 12.7611 4.12162L12.304 6.75H8.8265L9.23891 4.37863C9.30988 3.97054 9.03659 3.58219 8.6285 3.51121C8.22042 3.44024 7.83206 3.71353 7.76109 4.12162L7.30398 6.75H4.5C4.08579 6.75 3.75 7.08579 3.75 7.5C3.75 7.91421 4.08579 8.25 4.5 8.25H7.04311L6.43441 11.75H4C3.58579 11.75 3.25 12.0858 3.25 12.5C3.25 12.9142 3.58579 13.25 4 13.25H6.17354L5.76109 15.6216C5.69012 16.0297 5.9634 16.4181 6.37149 16.489C6.77958 16.56 7.16794 16.2867 7.23891 15.8786L7.69606 13.25H11.1735L10.7611 15.6216C10.6901 16.0297 10.9634 16.4181 11.3715 16.489C11.7796 16.56 12.1679 16.2867 12.2389 15.8786L12.6961 13.25H15.5C15.9142 13.25 16.25 12.9142 16.25 12.5C16.25 12.0858 15.9142 11.75 15.5 11.75H12.9569L13.5656 8.25H16C16.4142 8.25 16.75 7.91421 16.75 7.5C16.75 7.08579 16.4142 6.75 16 6.75H13.8265L14.2389 4.37863ZM7.95693 11.75H11.4344L12.0431 8.25H8.56563L7.95693 11.75Z" fill="#4A4A4A"/>
</svg>

<svg viewBox="0 0 20 20" xmlns="http://www.w3.org/2000/svg"><path fill-rule="evenodd" d="M14.239 4.379a.75.75 0 1 0-1.478-.257l-.457 2.628h-3.478l.413-2.371a.75.75 0 0 0-1.478-.257l-.457 2.628h-2.804a.75.75 0 0 0 0 1.5h2.543l-.609 3.5h-2.434a.75.75 0 0 0 0 1.5h2.174l-.413 2.372a.75.75 0 1 0 1.478.257l.457-2.629h3.478l-.413 2.372a.75.75 0 1 0 1.478.257l.457-2.629h2.804a.75.75 0 0 0 0-1.5h-2.543l.609-3.5h2.434a.75.75 0 0 0 0-1.5h-2.174l.413-2.371Zm-6.282 7.371h3.477l.61-3.5h-3.478l-.61 3.5Z" fill="#5C5F62"/></svg>
